X: 40
T:Danny Flynn's Jig
M:6/8
L:1/8
C:Bob McQuillen
R:Double Jig
K:D
A[|:ded cBA|Bcd A2g|fdB AFA|dAF E2F|!
DFA EGB|Adf ecA|Bgf ede|1fdd d2A:|2fdd d2e|!
|:fdf gab|afd ede|fdf edB|AFD EFA|!
Bdd Add|FAB AFD|GAB ABc|1edc d2e:|2edc d2A|]!
